lib/assets/icons/svg/outlined-social-myprofile.svg

<svg xmlns="http://www.w3.org/2000/svg" viewBox="0 0 24 24"><path d="M12.007 21.5C4.694 21.5.123 13.583 3.78 7.25 7.436.917 16.578.917 20.234 7.25A9.497 9.497 0 0 1 21.507 12a9.511 9.511 0 0 1-9.5 9.5zm0-18c-6.543 0-10.633 7.083-7.361 12.75 3.271 5.667 11.451 5.667 14.722 0A8.5 8.5 0 0 0 20.507 12a8.51 8.51 0 0 0-8.5-8.5zM8.938 8.666c1.347-2.333 4.715-2.333 6.062 0a3.503 3.503 0 0 1-1.007 4.606 6.04 6.04 0 0 1 2.586 1.743c.533.606.94 1.311 1.198 2.075a.5.5 0 0 1-.47.66.49.49 0 0 1-.47-.34 5.167 5.167 0 0 0-3.18-3.18 5.11 5.11 0 0 0-6.48 3.18.5.5 0 0 1-.94-.32 6.011 6.011 0 0 1 3.736-3.793c-1.408-.982-2.001-2.956-1.035-4.631zm3.031-.75c-1.925 0-3.127 2.084-2.165 3.75.962 1.667 3.368 1.667 4.33 0a2.5 2.5 0 0 0-2.165-3.75z"/></svg>

<svg viewBox="0 0 24 24" xmlns="http://www.w3.org/2000/svg">
  <path  d="M 12.007 21.5 C 4.694 21.5 0.123 13.583 3.78 7.25 C 7.436 0.917 16.578 0.917 20.234 7.25 C 21.068 8.694 21.507 10.332 21.507 12 C 21.501 17.244 17.251 21.494 12.007 21.5 Z M 12.007 3.5 C 5.464 3.5 1.374 10.583 4.646 16.25 C 7.917 21.917 16.097 21.917 19.368 16.25 C 20.114 14.958 20.507 13.492 20.507 12 C 20.501 7.308 16.699 3.506 12.007 3.5 Z M 8.938 8.666 C 10.285 6.333 13.653 6.333 15 8.666 C 15.307 9.198 15.469 9.802 15.469 10.416 C 15.469 11.595 14.886 12.637 13.993 13.272 C 14.944 13.598 15.837 14.172 16.579 15.015 C 17.112 15.621 17.519 16.326 17.777 17.09 C 17.863 17.349 17.725 17.63 17.467 17.72 C 17.416 17.74 17.362 17.75 17.307 17.75 C 17.093 17.752 16.903 17.614 16.837 17.41 C 16.318 15.92 15.147 14.749 13.657 14.23 C 10.99 13.322 8.091 14.745 7.177 17.41 C 7.011 17.757 6.531 17.794 6.314 17.477 C 6.236 17.364 6.209 17.224 6.237 17.09 C 6.881 15.182 8.309 13.881 9.973 13.297 C 8.565 12.315 7.972 10.341 8.938 8.666 Z M 11.969 7.916 C 10.044 7.916 8.842 10 9.804 11.666 C 10.766 13.333 13.172 13.333 14.134 11.666 C 14.353 11.286 14.469 10.855 14.469 10.416 C 14.469 9.036 13.35 7.916 11.969 7.916 Z"/>
</svg>
